X: 45
M: C|
L: 1/8
K: Am
cB |\
|: ed |\
cBcd efef | g2G2 G2gf | edcB ABcA | e2E2 E2(3(efg) |\
a2d2 cBcd | eBcA ^G2e2 | dcBA E2^G2 | A6 :|

